outputs/icons/editor/align_horizontal_center_round.svg

<svg xmlns="http://www.w3.org/2000/svg" width="1200" height="1200" fill="none"><g clip-path="url(#a)"><path fill="#000" d="M600 100c27.5 0 50 22.5 50 50v200h325c41.5 0 75 33.5 75 75s-33.5 75-75 75H650v200h175c41.5 0 75 33.5 75 75s-33.5 75-75 75H650v200c0 27.5-22.5 50-50 50s-50-22.5-50-50V850H375c-41.5 0-75-33.5-75-75s33.5-75 75-75h175V500H225c-41.5 0-75-33.5-75-75s33.5-75 75-75h325V150c0-27.5 22.5-50 50-50"/></g><defs><clipPath id="a"><path fill="#fff" d="M0 0h1200v1200H0z"/></clipPath></defs></svg>

<svg width="1200" height="1200" viewBox="0 0 1200 1200" fill="none" xmlns="http://www.w3.org/2000/svg"><g clip-path="url(#clip0_238_249)"><path d="M600 100C627.5 100 650 122.5 650 150V350H975C1016.5 350 1050 383.5 1050 425C1050 466.5 1016.5 500 975 500H650V700H825C866.5 700 900 733.5 900 775C900 816.5 866.5 850 825 850H650V1050C650 1077.5 627.5 1100 600 1100C572.5 1100 550 1077.5 550 1050V850H375C333.5 850 300 816.5 300 775C300 733.5 333.5 700 375 700H550V500H225C183.5 500 150 466.5 150 425C150 383.5 183.5 350 225 350H550V150C550 122.5 572.5 100 600 100Z" fill="#1D1E23"/></g><defs><clipPath id="clip0_238_249"><path width="24" fill="white" d="M0 0H1200V1200H0V0z"/></clipPath></defs></svg>
